public/assets/images/logo.svg

<svg version="1.1" id="Layer_1" xmlns="http://www.w3.org/2000/svg" xmlns:xlink="http://www.w3.org/1999/xlink" x="0px" y="0px"
	 width="100%" viewBox="0 0 1000 1000" enable-background="new 0 0 1000 1000" xml:space="preserve">
<path fill="#D74848" opacity="1.000000" stroke="none" 
	d="
M489.000000,1.000000 
	C496.354248,1.000000 503.708496,1.000000 511.771637,1.314476 
	C523.328918,3.077317 533.472961,6.419583 542.929382,12.081867 
	C555.065308,19.348518 567.421448,26.246943 579.674194,33.318645 
	C688.080933,95.885963 796.467041,158.489136 904.916016,220.983139 
	C917.860168,228.442261 927.592346,238.767731 934.401062,251.795044 
	C932.976685,252.311829 931.835693,252.631714 930.840393,253.204590 
	C910.682617,264.807220 890.555786,276.463684 870.393494,288.058441 
	C844.759827,302.799591 819.100037,317.495422 793.135132,332.136719 
	C788.215881,325.799622 782.165955,323.384735 774.275146,322.766479 
	C750.901245,320.935028 727.593872,318.235321 704.270874,315.777100 
	C680.796631,313.302887 657.335693,310.703125 633.867249,308.173248 
	C615.678589,306.212524 597.489746,304.253204 579.296387,302.336487 
	C570.942688,301.456390 562.578003,300.679932 554.218323,299.856445 
	C554.047607,300.213593 553.876892,300.570740 553.706177,300.927856 
	C579.890564,330.159607 606.074890,359.391357 632.680786,389.093781 
	C634.298523,386.543091 635.622131,384.480499 636.921814,382.402954 
	C643.143921,372.456909 651.096130,364.257050 661.915649,359.470093 
	C687.345032,348.219238 712.311768,352.939911 737.051514,362.583252 
	C734.855530,364.338409 732.663269,365.727295 730.091797,367.178589 
	C714.555786,364.133972 699.512085,361.619324 683.842285,364.609955 
	C667.121399,367.801208 654.062500,376.049194 643.676331,389.238922 
	C634.124512,401.369141 628.741516,415.390503 624.228394,430.113953 
	C623.459290,430.417572 622.966614,430.551086 622.538879,430.797363 
	C588.763428,450.246277 554.993164,469.704041 520.909241,489.312561 
	C486.889740,508.860901 453.181061,528.253662 419.488922,547.675232 
	C418.508636,548.240295 417.703674,549.109497 416.480103,549.936035 
	C388.322083,565.982910 360.514130,581.953735 332.672821,597.866150 
	C322.591797,603.627869 312.430878,609.249878 302.263336,614.477478 
	C302.220245,576.770935 302.220245,539.522522 302.220245,501.821564 
	C304.696747,501.821564 306.503082,501.824890 308.309418,501.821045 
	C335.132111,501.763550 361.968048,502.216064 388.774323,501.523315 
	C425.952026,500.562561 457.885529,486.623413 483.329865,459.386749 
	C515.890991,424.532135 526.788086,382.458160 520.647034,336.046387 
	C511.751587,268.816956 456.092560,219.717560 388.291595,219.063309 
	C326.319946,218.465302 264.338562,218.870407 202.361481,218.857849 
	C201.111191,218.857605 199.860840,219.156540 198.510452,219.328629 
	C198.422699,220.510010 198.309708,221.324203 198.309143,222.138474 
	C198.232727,334.094635 198.145004,446.050781 198.106583,558.006958 
	C198.093323,596.656372 198.203674,635.305847 198.172821,674.303589 
	C197.136993,675.535706 196.312759,676.639526 195.216507,677.271423 
	C155.153412,700.363647 115.073494,723.426758 74.960182,746.431580 
	C72.412987,747.892395 69.579124,748.853333 66.575378,749.876221 
	C60.144070,738.441101 55.998837,726.599548 55.997898,713.604370 
	C55.987686,572.167175 55.679169,430.728699 56.255116,289.293854 
	C56.371006,260.833740 70.579422,238.384598 94.392349,222.748657 
	C106.063118,215.085449 118.516769,208.612946 130.628876,201.623703 
	C238.762085,139.225922 346.868286,76.781197 455.095367,14.546656 
	C462.951111,10.029308 471.643799,6.936770 480.046326,3.418095 
	C482.872772,2.234501 486.006653,1.785020 489.000000,1.000000 
z"/>
<path fill="#8C2F2F" opacity="1.000000" stroke="none" 
	d="
M793.451477,332.210754 
	C819.100037,317.495422 844.759827,302.799591 870.393494,288.058441 
	C890.555786,276.463684 910.682617,264.807220 930.840393,253.204590 
	C931.835693,252.631714 932.976685,252.311829 934.626160,252.114517 
	C941.453186,263.542236 945.956543,275.339447 945.962952,288.305603 
	C946.032898,430.271698 946.345337,572.239258 945.720642,714.202637 
	C945.597290,742.218872 931.725403,764.903137 907.987244,779.891357 
	C884.366394,794.805420 859.709473,808.079102 835.497559,822.055908 
	C752.343811,870.058350 669.306213,918.263977 585.949097,965.910645 
	C563.835449,978.550659 543.174011,994.211975 518.000000,1001.000000 
	C506.979095,1001.000000 495.958221,1001.000000 484.210632,1000.723511 
	C475.325958,997.247498 466.625793,994.997437 459.095795,990.697876 
	C399.585388,956.718506 340.293945,922.355408 280.943146,888.096558 
	C218.567047,852.091431 156.152267,816.152832 93.870056,779.985962 
	C81.809570,772.982483 72.912415,762.699036 66.878616,750.046814 
	C69.579124,748.853333 72.412987,747.892395 74.960182,746.431580 
	C115.073494,723.426758 155.153412,700.363647 195.216507,677.271423 
	C196.312759,676.639526 197.136993,675.535706 198.527222,674.316589 
	C200.479111,673.389771 202.090805,672.972717 203.489120,672.179565 
	C216.071869,665.042603 228.655243,657.905212 241.164764,650.641052 
	C261.574402,638.789368 281.928772,626.842407 302.306427,614.935608 
	C312.430878,609.249878 322.591797,603.627869 332.672821,597.866150 
	C360.514130,581.953735 388.322083,565.982910 416.545532,550.419922 
	C416.953949,606.298889 416.907227,661.793152 417.021942,717.287048 
	C417.039490,725.768127 417.068268,734.359375 418.337982,742.710144 
	C428.543213,809.828674 467.130310,853.998230 530.054504,876.735413 
	C568.337280,890.568665 608.089355,891.269714 647.789917,882.567627 
	C693.091736,872.637695 729.061340,848.593811 754.655640,809.688660 
	C772.971802,781.846741 780.370239,750.921204 780.292847,717.810608 
	C780.121887,644.652161 780.239563,571.492981 780.239502,498.334076 
	C780.239502,496.379486 780.239563,494.424896 780.239563,492.848969 
	C787.834778,491.806641 794.911072,491.091614 801.883667,489.811676 
	C810.008240,488.320282 813.072876,484.203918 813.186279,476.089630 
	C813.318665,466.613647 813.602661,457.139587 813.865540,447.665924 
	C813.891846,446.717621 814.226196,445.777863 814.501709,444.419342 
	C831.625549,446.424072 848.567505,448.407532 865.228882,450.358124 
	C865.228882,462.102997 866.073608,473.445496 865.057007,484.618652 
	C862.784119,509.599854 859.673523,534.507568 856.647461,559.414001 
	C856.267761,562.539062 856.919739,563.992737 859.692017,565.099915 
	C866.669250,567.886658 873.685242,567.579895 880.737915,565.642578 
	C885.055298,564.456665 886.650330,561.938049 885.851074,557.154846 
	C882.453125,536.821289 878.823120,516.496460 876.443665,496.032898 
	C874.744751,481.422424 874.901184,466.596222 874.212769,451.494385 
	C884.996582,452.656830 894.494751,453.680664 905.260193,454.841095 
	C901.097473,450.396210 897.821167,446.963959 894.616760,443.465851 
	C868.371094,414.814606 842.111206,386.176331 815.919861,357.475525 
	C808.323547,349.151459 800.935181,340.637604 793.451477,332.210754 
z"/>
<path fill="#FFFFFF" opacity="1.000000" stroke="none" 
	d="
M66.575378,749.876221 
	C72.912415,762.699036 81.809570,772.982483 93.870056,779.985962 
	C156.152267,816.152832 218.567047,852.091431 280.943146,888.096558 
	C340.293945,922.355408 399.585388,956.718506 459.095795,990.697876 
	C466.625793,994.997437 475.325958,997.247498 483.742004,1000.723511 
	C323.035706,1001.000000 162.071411,1001.000000 1.053562,1001.000000 
	C1.053562,667.776306 1.053562,334.552612 1.053562,1.000000 
	C163.354080,1.000000 325.708374,1.000000 488.531342,1.000000 
	C486.006653,1.785020 482.872772,2.234501 480.046326,3.418095 
	C471.643799,6.936770 462.951111,10.029308 455.095367,14.546656 
	C346.868286,76.781197 238.762085,139.225922 130.628876,201.623703 
	C118.516769,208.612946 106.063118,215.085449 94.392349,222.748657 
	C70.579422,238.384598 56.371006,260.833740 56.255116,289.293854 
	C55.679169,430.728699 55.987686,572.167175 55.997898,713.604370 
	C55.998837,726.599548 60.144070,738.441101 66.575378,749.876221 
z"/>
<path fill="#FFFFFF" opacity="1.000000" stroke="none" 
	d="
M518.468628,1001.000000 
	C543.174011,994.211975 563.835449,978.550659 585.949097,965.910645 
	C669.306213,918.263977 752.343811,870.058350 835.497559,822.055908 
	C859.709473,808.079102 884.366394,794.805420 907.987244,779.891357 
	C931.725403,764.903137 945.597290,742.218872 945.720642,714.202637 
	C946.345337,572.239258 946.032898,430.271698 945.962952,288.305603 
	C945.956543,275.339447 941.453186,263.542236 934.977417,252.035400 
	C927.592346,238.767731 917.860168,228.442261 904.916016,220.983139 
	C796.467041,158.489136 688.080933,95.885963 579.674194,33.318645 
	C567.421448,26.246943 555.065308,19.348518 542.929382,12.081867 
	C533.472961,6.419583 523.328918,3.077317 512.240234,1.314476 
	C674.963806,1.000000 837.927673,1.000000 1000.945740,1.000000 
	C1000.945740,334.223175 1000.945740,667.446350 1000.945740,1001.000000 
	C840.312561,1001.000000 679.624939,1001.000000 518.468628,1001.000000 
z"/>
<path fill="#FFFEFE" opacity="1.000000" stroke="none" 
	d="
M793.135132,332.136688 
	C800.935181,340.637604 808.323547,349.151459 815.919861,357.475525 
	C842.111206,386.176331 868.371094,414.814606 894.616760,443.465851 
	C897.821167,446.963959 901.097473,450.396210 905.260193,454.841095 
	C894.494751,453.680664 884.996582,452.656830 874.212769,451.494385 
	C874.901184,466.596222 874.744751,481.422424 876.443665,496.032898 
	C878.823120,516.496460 882.453125,536.821289 885.851074,557.154846 
	C886.650330,561.938049 885.055298,564.456665 880.737915,565.642578 
	C873.685242,567.579895 866.669250,567.886658 859.692017,565.099915 
	C856.919739,563.992737 856.267761,562.539062 856.647461,559.414001 
	C859.673523,534.507568 862.784119,509.599854 865.057007,484.618652 
	C866.073608,473.445496 865.228882,462.102997 865.228882,450.358124 
	C848.567505,448.407532 831.625549,446.424072 814.501709,444.419342 
	C814.226196,445.777863 813.891846,446.717621 813.865540,447.665924 
	C813.602661,457.139587 813.318665,466.613647 813.186279,476.089630 
	C813.072876,484.203918 810.008240,488.320282 801.883667,489.811676 
	C794.911072,491.091614 787.834778,491.806641 780.239563,492.848969 
	C780.239563,494.424896 780.239502,496.379486 780.239502,498.334076 
	C780.239563,571.492981 780.121887,644.652161 780.292847,717.810608 
	C780.370239,750.921204 772.971802,781.846741 754.655640,809.688660 
	C729.061340,848.593811 693.091736,872.637695 647.789917,882.567627 
	C608.089355,891.269714 568.337280,890.568665 530.054504,876.735413 
	C467.130310,853.998230 428.543213,809.828674 418.337982,742.710144 
	C417.068268,734.359375 417.039490,725.768127 417.021942,717.287048 
	C416.907227,661.793152 416.953949,606.298889 416.882416,550.320801 
	C417.703674,549.109497 418.508636,548.240295 419.488922,547.675232 
	C453.181061,528.253662 486.889740,508.860901 520.955933,489.761169 
	C521.346069,540.031067 521.329224,590.003906 521.425537,639.976501 
	C521.477844,667.123474 521.285400,694.281372 521.995117,721.413696 
	C522.818726,752.899109 544.666931,783.704529 576.170654,792.321411 
	C604.456177,800.057983 630.416809,795.536560 652.644409,775.875183 
	C671.147095,759.508545 679.379456,738.255676 679.380798,713.699402 
	C679.385132,633.574890 679.370056,553.450378 679.447144,473.325958 
	C679.450012,470.389954 678.473267,469.101776 675.791992,467.857025 
	C664.666870,462.692352 653.426758,457.662201 642.784668,451.605988 
	C634.310364,446.783478 626.032715,441.052734 624.535095,429.996490 
	C628.741516,415.390503 634.124512,401.369141 643.676331,389.238922 
	C654.062500,376.049194 667.121399,367.801208 683.842285,364.609955 
	C699.512085,361.619324 714.555786,364.133972 730.408691,367.413391 
	C748.102844,373.711823 765.100952,379.837830 782.098999,385.963837 
	C768.415466,375.685303 753.391296,367.733856 737.055298,362.217010 
	C712.311768,352.939911 687.345032,348.219238 661.915649,359.470093 
	C651.096130,364.257050 643.143921,372.456909 636.921814,382.402954 
	C635.622131,384.480499 634.298523,386.543091 632.680786,389.093781 
	C606.074890,359.391357 579.890564,330.159607 553.706177,300.927856 
	C553.876892,300.570740 554.047607,300.213593 554.218323,299.856445 
	C562.578003,300.679932 570.942688,301.456390 579.296387,302.336487 
	C597.489746,304.253204 615.678589,306.212524 633.867249,308.173248 
	C657.335693,310.703125 680.796631,313.302887 704.270874,315.777100 
	C727.593872,318.235321 750.901245,320.935028 774.275146,322.766479 
	C782.165955,323.384735 788.215881,325.799622 793.135132,332.136688 
z"/>
<path fill="#FFFEFE" opacity="1.000000" stroke="none" 
	d="
M302.263336,614.477478 
	C281.928772,626.842407 261.574402,638.789368 241.164764,650.641052 
	C228.655243,657.905212 216.071869,665.042603 203.489120,672.179565 
	C202.090805,672.972717 200.479111,673.389771 198.611969,673.968262 
	C198.203674,635.305847 198.093323,596.656372 198.106583,558.006958 
	C198.145004,446.050781 198.232727,334.094635 198.309143,222.138474 
	C198.309708,221.324203 198.422699,220.510010 198.510452,219.328629 
	C199.860840,219.156540 201.111191,218.857605 202.361481,218.857849 
	C264.338562,218.870407 326.319946,218.465302 388.291595,219.063309 
	C456.092560,219.717560 511.751587,268.816956 520.647034,336.046387 
	C526.788086,382.458160 515.890991,424.532135 483.329865,459.386749 
	C457.885529,486.623413 425.952026,500.562561 388.774323,501.523315 
	C361.968048,502.216064 335.132111,501.763550 308.309418,501.821045 
	C306.503082,501.824890 304.696747,501.821564 302.220245,501.821564 
	C302.220245,539.522522 302.220245,576.770935 302.263336,614.477478 
M301.020508,353.500000 
	C301.020508,372.242767 301.020508,390.985535 301.020508,410.012329 
	C303.419983,410.012329 305.069550,410.015472 306.719086,410.011841 
	C329.035645,409.962738 351.352173,409.916595 373.668671,409.847717 
	C374.490723,409.845184 375.316315,409.641205 376.133087,409.491974 
	C399.832520,405.160706 415.577789,386.061920 416.396759,360.659454 
	C417.276123,333.383331 398.579315,312.106445 371.329956,310.983887 
	C348.718506,310.052368 326.043640,310.657471 303.396820,310.603912 
	C302.773193,310.602448 302.149017,310.853912 301.020508,311.095459 
	C301.020508,324.937622 301.020508,338.718811 301.020508,353.500000 
z"/>
<path fill="#8C2E2E" opacity="1.000000" stroke="none" 
	d="
M624.228394,430.113953 
	C626.032715,441.052734 634.310364,446.783478 642.784668,451.605988 
	C653.426758,457.662201 664.666870,462.692352 675.791992,467.857025 
	C678.473267,469.101776 679.450012,470.389954 679.447144,473.325958 
	C679.370056,553.450378 679.385132,633.574890 679.380798,713.699402 
	C679.379456,738.255676 671.147095,759.508545 652.644409,775.875183 
	C630.416809,795.536560 604.456177,800.057983 576.170654,792.321411 
	C544.666931,783.704529 522.818726,752.899109 521.995117,721.413696 
	C521.285400,694.281372 521.477844,667.123474 521.425537,639.976501 
	C521.329224,590.003906 521.346069,540.031067 521.269104,489.609741 
	C554.993164,469.704041 588.763428,450.246277 622.538879,430.797363 
	C622.966614,430.551086 623.459290,430.417572 624.228394,430.113953 
z"/>
<path fill="#8F4140" opacity="1.000000" stroke="none" 
	d="
M737.051514,362.583252 
	C753.391296,367.733856 768.415466,375.685303 782.098999,385.963837 
	C765.100952,379.837830 748.102844,373.711823 730.787964,367.351013 
	C732.663269,365.727295 734.855530,364.338409 737.051514,362.583252 
z"/>
<path fill="#D64848" opacity="1.000000" stroke="none" 
	d="
M301.020508,353.000000 
	C301.020508,338.718811 301.020508,324.937622 301.020508,311.095459 
	C302.149017,310.853912 302.773193,310.602448 303.396820,310.603912 
	C326.043640,310.657471 348.718506,310.052368 371.329956,310.983887 
	C398.579315,312.106445 417.276123,333.383331 416.396759,360.659454 
	C415.577789,386.061920 399.832520,405.160706 376.133087,409.491974 
	C375.316315,409.641205 374.490723,409.845184 373.668671,409.847717 
	C351.352173,409.916595 329.035645,409.962738 306.719086,410.011841 
	C305.069550,410.015472 303.419983,410.012329 301.020508,410.012329 
	C301.020508,390.985535 301.020508,372.242767 301.020508,353.000000 
z"/>
</svg>

<svg version="1.2" xmlns="http://www.w3.org/2000/svg" viewBox="0 0 1000 1000" width="1000" height="1000">
	<title>logo-svg</title>
	<style>
		.s0 { fill: #d74848 } 
		.s1 { fill: #8c2f2f } 
		.s2 { fill: #fffefe } 
		.s3 { fill: #8c2e2e } 
		.s4 { fill: #8f4140 } 
		.s5 { fill: #d64848 } 
	</style>
	<path id="Layer" class="s0" d="m489 1c7.4 0 14.7 0 22.8 0.3 11.5 1.8 21.7 5.1 31.1 10.8 12.2 7.2 24.5 14.1 36.8 21.2 108.4 62.6 216.8 125.2 325.2 187.7 13 7.4 22.7 17.8 29.5 30.8-1.4 0.5-2.6 0.8-3.6 1.4-20.1 11.6-40.2 23.3-60.4 34.9-25.6 14.7-51.3 29.4-77.3 44-4.9-6.3-10.9-8.7-18.8-9.3-23.4-1.9-46.7-4.6-70-7-23.5-2.5-47-5.1-70.4-7.6q-27.3-3-54.6-5.9c-8.4-0.8-16.7-1.6-25.1-2.4q-0.2 0.5-0.5 1c26.2 29.3 52.4 58.5 79 88.2 1.6-2.6 2.9-4.6 4.2-6.7 6.2-9.9 14.2-18.1 25-22.9 25.4-11.3 50.4-6.6 75.2 3.1-2.2 1.7-4.4 3.1-7 4.6-15.5-3.1-30.6-5.6-46.3-2.6-16.7 3.2-29.7 11.4-40.1 24.6-9.6 12.2-15 26.2-19.5 40.9-0.7 0.3-1.2 0.5-1.7 0.7-33.7 19.4-67.5 38.9-101.6 58.5-34 19.6-67.7 39-101.4 58.4-1 0.5-1.8 1.4-3 2.2-28.2 16.1-56 32.1-83.8 48-10.1 5.7-20.3 11.3-30.4 16.6-0.1-37.7-0.1-75-0.1-112.7 2.5 0 4.3 0 6.1 0 26.8 0 53.7 0.4 80.5-0.3 37.2-0.9 69.1-14.9 94.5-42.1 32.6-34.9 43.5-76.9 37.3-123.4-8.8-67.2-64.5-116.3-132.3-116.9-62-0.6-124-0.2-185.9-0.2-1.3 0-2.5 0.3-3.9 0.4-0.1 1.2-0.2 2-0.2 2.8q-0.1 168-0.2 335.9c0 38.7 0.1 77.3 0.1 116.3-1.1 1.2-1.9 2.3-3 3q-60.1 34.6-120.2 69.1c-2.6 1.5-5.4 2.5-8.4 3.5-6.5-11.5-10.6-23.3-10.6-36.3 0-141.4-0.3-282.9 0.3-424.3 0.1-28.5 14.3-50.9 38.1-66.6 11.7-7.6 24.1-14.1 36.2-21.1 108.2-62.4 216.3-124.8 324.5-187.1 7.9-4.5 16.5-7.6 24.9-11.1 2.9-1.2 6-1.6 9-2.4z"/>
	<path id="Layer" class="s1" d="m793.5 332.2c25.6-14.7 51.3-29.4 76.9-44.1 20.2-11.6 40.3-23.3 60.4-34.9 1-0.6 2.2-0.9 3.8-1.1 6.9 11.4 11.4 23.2 11.4 36.2 0 142 0.3 283.9-0.3 425.9-0.1 28-14 50.7-37.7 65.7-23.6 14.9-48.3 28.2-72.5 42.2-83.2 48-166.2 96.2-249.6 143.8-22.1 12.7-42.7 28.3-67.9 35.1-11 0-22 0-33.8-0.3-8.9-3.5-17.6-5.7-25.1-10-59.5-34-118.8-68.3-178.2-102.6-62.3-36-124.7-71.9-187-108.1-12.1-7-21-17.3-27-30 2.7-1.1 5.5-2.1 8.1-3.6q60.1-34.5 120.2-69.1c1.1-0.7 1.9-1.8 3.3-3 2-0.9 3.6-1.3 5-2.1 12.6-7.2 25.2-14.3 37.7-21.6 20.4-11.8 40.7-23.8 61.1-35.7 10.1-5.7 20.3-11.3 30.4-17 27.8-15.9 55.6-31.9 83.8-47.5 0.5 55.9 0.4 111.4 0.5 166.9 0 8.5 0.1 17.1 1.3 25.4 10.2 67.1 48.8 111.3 111.8 134 38.2 13.9 78 14.6 117.7 5.9 45.3-10 81.3-34 106.9-72.9 18.3-27.9 25.7-58.8 25.6-91.9-0.2-73.1-0.1-146.3-0.1-219.5 0-1.9 0-3.9 0-5.5 7.6-1 14.7-1.7 21.7-3 8.1-1.5 11.2-5.6 11.3-13.7 0.1-9.5 0.4-19 0.7-28.4 0-1 0.3-1.9 0.6-3.3 17.1 2 34.1 4 50.7 6 0 11.7 0.9 23-0.1 34.2-2.3 25-5.4 49.9-8.5 74.8-0.3 3.1 0.3 4.6 3.1 5.7 7 2.8 14 2.5 21 0.5 4.4-1.1 6-3.7 5.2-8.4-3.4-20.4-7.1-40.7-9.5-61.2-1.7-14.6-1.5-29.4-2.2-44.5 10.8 1.2 20.3 2.2 31.1 3.3-4.2-4.4-7.5-7.8-10.7-11.3-26.2-28.7-52.5-57.3-78.7-86-7.6-8.3-15-16.9-22.4-25.3z"/>
	<path id="Layer" class="s2" d="m793.1 332.1c7.8 8.5 15.2 17.1 22.8 25.4 26.2 28.7 52.5 57.3 78.7 86 3.2 3.5 6.5 6.9 10.7 11.3-10.8-1.1-20.3-2.1-31.1-3.3 0.7 15.1 0.5 29.9 2.2 44.5 2.4 20.5 6.1 40.8 9.5 61.2 0.8 4.7-0.8 7.3-5.2 8.4-7 2-14 2.3-21-0.5-2.8-1.1-3.4-2.6-3.1-5.7 3.1-24.9 6.2-49.8 8.5-74.8 1-11.2 0.1-22.5 0.1-34.2-16.6-2-33.6-4-50.7-6-0.3 1.4-0.6 2.3-0.6 3.3-0.3 9.4-0.6 18.9-0.7 28.4-0.1 8.1-3.2 12.2-11.3 13.7-7 1.3-14.1 2-21.7 3 0 1.6 0 3.6 0 5.5 0 73.2-0.1 146.4 0.1 219.5 0.1 33.1-7.3 64-25.6 91.9-25.6 38.9-61.6 62.9-106.9 72.9-39.7 8.7-79.5 8-117.7-5.9-63-22.7-101.6-66.9-111.8-134-1.2-8.3-1.3-16.9-1.3-25.4-0.1-55.5 0-111-0.1-167 0.8-1.2 1.6-2.1 2.6-2.6 33.7-19.4 67.4-38.8 101.5-57.9 0.3 50.2 0.3 100.2 0.4 150.2 0.1 27.1-0.1 54.3 0.6 81.4 0.8 31.5 22.7 62.3 54.2 70.9 28.3 7.8 54.2 3.2 76.4-16.4 18.5-16.4 26.8-37.6 26.8-62.2 0-80.1 0-160.2 0-240.4 0.1-2.9-0.9-4.2-3.6-5.4-11.1-5.2-22.4-10.2-33-16.3-8.5-4.8-16.8-10.5-18.3-21.6 4.2-14.6 9.6-28.6 19.2-40.8 10.4-13.2 23.4-21.4 40.1-24.6 15.7-3 30.8-0.5 46.6 2.8 17.7 6.3 34.7 12.4 51.7 18.6-13.7-10.3-28.7-18.3-45-23.8-24.8-9.3-49.8-14-75.2-2.7-10.8 4.8-18.8 13-25 22.9-1.3 2.1-2.6 4.1-4.2 6.7-26.6-29.7-52.8-58.9-79-88.2q0.3-0.5 0.5-1c8.4 0.8 16.7 1.6 25.1 2.4q27.3 2.9 54.6 5.9c23.4 2.5 46.9 5.1 70.4 7.6 23.3 2.4 46.6 5.1 70 7 7.9 0.6 13.9 3 18.8 9.3z"/>
	<path id="Layer" fill-rule="evenodd" class="s2" d="m302.3 614.5c-20.4 12.3-40.7 24.3-61.1 36.1-12.5 7.3-25.1 14.4-37.7 21.6-1.4 0.8-3 1.2-4.9 1.8-0.4-38.7-0.5-77.3-0.5-116q0.1-167.9 0.2-335.9c0-0.8 0.1-1.6 0.2-2.8 1.4-0.1 2.6-0.4 3.9-0.4 61.9 0 123.9-0.4 185.9 0.2 67.8 0.6 123.5 49.7 132.3 116.9 6.2 46.5-4.7 88.5-37.3 123.4-25.4 27.2-57.3 41.2-94.5 42.1-26.8 0.7-53.7 0.3-80.5 0.3-1.8 0-3.6 0-6.1 0 0 37.7 0 75 0.1 112.7zm-1.3-261c0 18.7 0 37.5 0 56.5 2.4 0 4.1 0 5.7 0q33.5-0.1 67-0.2c0.8 0 1.6-0.2 2.4-0.3 23.7-4.3 39.5-23.4 40.3-48.8 0.9-27.3-17.8-48.6-45.1-49.7-22.6-0.9-45.3-0.3-67.9-0.4-0.6 0-1.3 0.3-2.4 0.5 0 13.8 0 27.6 0 42.4z"/>
	<path id="Layer" class="s3" d="m624.2 430.1c1.8 11 10.1 16.7 18.6 21.5 10.6 6.1 21.9 11.1 33 16.3 2.7 1.2 3.7 2.5 3.6 5.4 0 80.2 0 160.3 0 240.4 0 24.6-8.3 45.8-26.8 62.2-22.2 19.6-48.1 24.2-76.4 16.4-31.5-8.6-53.4-39.4-54.2-70.9-0.7-27.1-0.5-54.3-0.6-81.4-0.1-50-0.1-100-0.1-150.4 33.7-19.9 67.5-39.4 101.2-58.8 0.5-0.2 1-0.4 1.7-0.7z"/>
	<path id="Layer" class="s4" d="m737.1 362.6c16.3 5.1 31.3 13.1 45 23.4-17-6.2-34-12.3-51.3-18.6 1.9-1.7 4.1-3.1 6.3-4.8z"/>
	<path id="Layer" class="s5" d="m301 353c0-14.3 0-28.1 0-41.9 1.1-0.2 1.8-0.5 2.4-0.5 22.6 0.1 45.3-0.5 67.9 0.4 27.3 1.1 46 22.4 45.1 49.7-0.8 25.4-16.6 44.5-40.3 48.8-0.8 0.1-1.6 0.3-2.4 0.3q-33.5 0.1-67 0.2c-1.6 0-3.3 0-5.7 0 0-19 0-37.8 0-57z"/>
</svg>
